X: 7217
T: Claggy's Dilemma
R: jig
M: 6/8
K: Dmixolydian
DdD cDd|DdD cAF|DdD cDd|fed cAF|
DdD cDd|DdD cDd|fed cAF|DEF GAB:|
[K:D]|:AdA fed|AdA BAF|AdA fed|efe dBA|
AdA fed|efe dBA|ABA FED|ABc dcd:|

